X:1
T:Title
%%score { ( 1 3 ) | ( 2 4 ) }
L:1/8
Q:1/4=100
M:6/8
K:Db
V:1 treble nm="Grand Piano"
V:3 treble 
V:2 bass 
V:4 bass 
V:1
 [FA]3 [GB]2 [FA] | [FA]3 [DF]2 [DF] | [DF]2 D [FA]2 [DF] | [CE]6 | [Gc]3 [Gc]2 [Ge] | %5
w: Hallington~Booth * *|||||
[M:5/8] [Ge]2 [Ec] [CA]2 |[M:1/8] [CA] |[M:3/4] [CA][CB] [CA] [CE]2 [C_F] | [DF]4- [DF][FA] | %9
w: ||||
 [FA]2 [FA][FA] [GB][Gc] |[M:5/8] [Fd]2 [Fd] [FA]2 |[M:1/8] [FA] |[M:3/4] [FA]2 [FA][FA] [GB][Gc] | %13
w: ||||
 [Fd]2 [Fd] [FA]2 [FA] | [FA]F z[K:bass] .[CE]3 | [F,A,D]6 |[Q:1/4=120] [DF]2- [A,D-F-]2 [A,DF]2 | %17
w: ||||
 [FA]2- [DFA]2 d2 | e6 | [GB]6 | [EGc]4 [DGB]2 | [CEA]4 [A,CG]2 | [DF]6- |[M:2/4] [DF]4 | %24
w: |||||||
[M:1/4] z2 |[M:3/4] [A,DF]4 [DFA]2 | [Fd]4 [Fd]2 | [Ge]6 | [GB]6 | c4 A2 | f4 z2 | [Fd]6- | %32
w: ||||||||
 [Fd]4 z2 |] %33
w: |
V:2
 D,F,A, D,F,A, | D,F,A, D,F,A, | D,F,A, D,F,A, | A,,C,E, A,E,C, | A,,E,A, A,,E,A, | %5
[M:5/8] A,,E,A, A,,E, |[M:1/8] A, |[M:3/4] A,,E, A,A,, E,A, | D,F, A,B, A,F, | D,F, A,D, G,A, | %10
[M:5/8] D,F,A, D,F, |[M:1/8] A, |[M:3/4] D,F, A,D, G,A, | D,F, A,D A,F, | [D,F,A,]D DA,, z D | %15
 D,6 | D,2 D,2 D,2 | D,2 D,2[K:treble] F2 | G2- [G,G-]2 [G,G]2 | G,2 G,2 z2 | A,4 A,2 | A,,4 A,,2 | %22
 D,2 F,2 A,2 |[M:2/4] B,2 A,2 |[M:1/4] F,2 |[M:3/4] D,4 D,2 | [D,A,]4 [D,A,]2 | [G,B,]4 G,2 | %28
 G,4 G,2 | [A,EG]4 [A,C]2 | [A,A]4 [A,CG]2 | A,4 z2 | D,4 z2 |] %33
V:3
 x6 | x6 | x6 | x6 | x6 |[M:5/8] x5 |[M:1/8] x |[M:3/4] x6 | x6 | x6 |[M:5/8] x5 |[M:1/8] x | %12
[M:3/4] x6 | x6 | z2 z[K:bass] G, z2 | x6 | A,2 z2 z2 | D2 z2 z2 | z2 B,2 B,2 | E2 E2 z2 | x6 | %21
 x6 | A,4 z2 |[M:2/4] x4 |[M:1/4] x2 |[M:3/4] x6 | x6 | z2 z2 B,2 | E4 E2 | x6 | z2 B,2 e2 | x6 | %32
 A,4 z2 |] %33
V:4
 x6 | x6 | x6 | x6 | x6 |[M:5/8] x5 |[M:1/8] x |[M:3/4] x6 | x6 | x6 |[M:5/8] x5 |[M:1/8] x | %12
[M:3/4] x6 | x6 | x6 | x6 | x6 | x4[K:treble] x2 | [G,B,]2 z2 z2 | x6 | x6 | x6 | x6 |[M:2/4] x4 | %24
[M:1/4] x2 |[M:3/4] x6 | x6 | x6 | x6 | x6 | D2 z2 z2 | D,2 F,2 A,2 | x6 |] %33

